projects/flag-game/flags/Libya.svg

<svg viewBox="0 0 1000 500" xmlns="http://www.w3.org/2000/svg"><path d="m0 0h1000v500h-1000z" fill="#239e46"/><g fill-rule="evenodd"><path d="m0 0h1000v375h-1000zm0 0"/><path d="m0 0h1000v125h-1000zm0 0" fill="#e70013"/><path d="m544.199219 205.800781c-8.066407-5.757812-17.738281-9.242187-27.625-9.960937-9.890625-.710938-19.957031 1.347656-28.773438 5.882812-8.8125 4.539063-16.339843 11.542969-21.503906 20.007813-5.160156 8.460937-7.9375 18.355469-7.9375 28.269531s2.777344 19.808594 7.9375 28.269531c5.164063 8.464844 12.691406 15.46875 21.503906 20.007813 8.816407 4.535156 18.882813 6.59375 28.773438 5.882812 9.886719-.71875 19.558593-4.203125 27.625-9.960937-8.675781 8.675781-19.964844 14.707031-32 17.097656-12.039063 2.394531-24.773438 1.140625-36.109375-3.558594-11.332032-4.695312-21.226563-12.8125-28.042969-23.015625-6.816406-10.207031-10.53125-22.453125-10.53125-34.722656s3.714844-24.515625 10.53125-34.722656c6.816406-10.203125 16.710937-18.320313 28.042969-23.015625 11.335937-4.699219 24.070312-5.953125 36.109375-3.558594 12.035156 2.390625 23.324219 8.421875 32 17.097656zm0 0" fill="#fff"/></g><path d="m562.5 260.417969v33.78125l19.875-27.328125 32.128906 10.429687-19.855468-27.300781 19.855468-27.300781-32.128906 10.429687-19.875-27.328125v33.78125l-32.101562 10.417969zm0 0" fill="#fff" stroke="#fff" stroke-linecap="square" stroke-miterlimit="3.239307"/></svg>

<?xml version="1.0" encoding="UTF-8"?>
<svg xmlns="http://www.w3.org/2000/svg" xmlns:xlink="http://www.w3.org/1999/xlink" viewBox="0 0 1000 500" version="1.1">
<g id="surface695">
<rect x="0" y="0" width="1000" height="500" style="fill:rgb(13.725281%,61.959839%,27.450562%);fill-opacity:1;stroke:none;"/>
<path style=" stroke:none;fill-rule:evenodd;fill:rgb(0%,0%,0%);fill-opacity:1;" d="M 0 0 L 1000 0 L 1000 375 L 0 375 Z M 0 0 "/>
<path style=" stroke:none;fill-rule:evenodd;fill:rgb(90.586853%,0%,7.450867%);fill-opacity:1;" d="M 0 0 L 1000 0 L 1000 125 L 0 125 Z M 0 0 "/>
<path style=" stroke:none;fill-rule:evenodd;fill:rgb(99.998474%,99.998474%,99.998474%);fill-opacity:1;" d="M 544.199219 205.800781 C 536.132812 200.042969 526.460938 196.558594 516.574219 195.839844 C 506.683594 195.128906 496.617188 197.1875 487.800781 201.722656 C 478.988281 206.261719 471.460938 213.265625 466.296875 221.730469 C 461.136719 230.191406 458.359375 240.085938 458.359375 250 C 458.359375 259.914062 461.136719 269.808594 466.296875 278.269531 C 471.460938 286.734375 478.988281 293.738281 487.800781 298.277344 C 496.617188 302.8125 506.683594 304.871094 516.574219 304.160156 C 526.460938 303.441406 536.132812 299.957031 544.199219 294.199219 C 535.523438 302.875 524.234375 308.90625 512.199219 311.296875 C 500.160156 313.691406 487.425781 312.4375 476.089844 307.738281 C 464.757812 303.042969 454.863281 294.925781 448.046875 284.722656 C 441.230469 274.515625 437.515625 262.269531 437.515625 250 C 437.515625 237.730469 441.230469 225.484375 448.046875 215.277344 C 454.863281 205.074219 464.757812 196.957031 476.089844 192.261719 C 487.425781 187.5625 500.160156 186.308594 512.199219 188.703125 C 524.234375 191.09375 535.523438 197.125 544.199219 205.800781 Z M 544.199219 205.800781 "/>
<path style="fill-rule:nonzero;fill:rgb(99.998474%,99.998474%,99.998474%);fill-opacity:1;stroke-width:1;stroke-linecap:square;stroke-linejoin:miter;stroke:rgb(99.998474%,99.998474%,99.998474%);stroke-opacity:1;stroke-miterlimit:3.239307;" d="M 562.5 260.417969 L 562.5 294.199219 L 582.375 266.871094 L 614.503906 277.300781 L 594.648438 250 L 614.503906 222.699219 L 582.375 233.128906 L 562.5 205.800781 L 562.5 239.582031 L 530.398438 250 Z M 562.5 260.417969 "/>
</g>
</svg>
